X:0207
M:C
L:1/8
Q:1/2=72
K:G
   B2G2 G2 AB |c2A2  A2 dc |BAGA    D2 TF2| G6         :|
   B2G2 G2 AB |c2A2  A2 dc |B2(ATG) F2  G2|(AG)(FE) D2GA|
   B2G2 G2TAB |c2A2  A2 dc |BAGA    D2 TF2| G6         :|

